pro/src/pages/AdageIframe/app/components/SurveySatisfaction/assets/survey.svg

<svg width="1068" height="214" viewBox="0 0 1068 214" fill="none" xmlns="http://www.w3.org/2000/svg">
<g clip-path="url(#clip0_1556_50846)">
<rect width="1068" height="214" rx="8" fill="#EFEAFF"/>
<g clip-path="url(#clip1_1556_50846)">
<path fill-rule="evenodd" clip-rule="evenodd" d="M841.066 -25.8315C844.238 -31.1111 851.046 -32.8086 856.326 -29.6363L989.78 50.5508C995.059 53.7231 996.757 60.5313 993.585 65.8109L927.459 175.863C925.877 178.495 926.729 181.911 929.361 183.493C931.993 185.074 935.41 184.223 936.991 181.59L1003.12 71.5385C1009.45 60.9943 1006.05 47.354 995.507 41.0184L862.054 -39.1687C851.509 -45.5043 837.869 -42.1034 831.533 -31.5592L728.436 140.024C722.1 150.568 725.501 164.209 736.045 170.544L869.499 250.732C880.043 257.067 893.684 253.666 900.019 243.122L911.589 223.867C913.171 221.234 912.319 217.818 909.687 216.236C907.054 214.655 903.638 215.507 902.057 218.139L890.487 237.394C887.314 242.674 880.506 244.371 875.227 241.199L741.773 161.012C736.493 157.84 734.796 151.032 737.968 145.752L841.066 -25.8315ZM855.344 15.1825C852.712 13.6008 849.296 14.4525 847.714 17.0848C846.132 19.7171 846.984 23.1332 849.616 24.7149L944.94 81.9914C947.573 83.573 950.989 82.7213 952.571 80.089C954.152 77.4567 953.3 74.0406 950.668 72.459L855.344 15.1825ZM824.803 55.2145C826.385 52.5822 829.801 51.7305 832.433 53.3121L927.758 110.589C930.39 112.17 931.242 115.586 929.66 118.219C928.078 120.851 924.662 121.703 922.03 120.121L826.706 62.8445C824.073 61.2629 823.222 57.8468 824.803 55.2145ZM809.523 91.4418C806.89 89.8601 803.474 90.7118 801.893 93.3442C800.311 95.9764 801.163 99.3925 803.795 100.974L870.522 141.068C873.154 142.649 876.57 141.798 878.152 139.165C879.734 136.533 878.882 133.117 876.25 131.535L809.523 91.4418Z" fill="#C1A3FF" fill-opacity="0.4"/>
</g>
</g>
<defs>
<clipPath id="clip0_1556_50846">
<rect width="1068" height="214" rx="8" fill="white"/>
</clipPath>
<clipPath id="clip1_1556_50846">
<rect width="266.9" height="266.9" fill="white" transform="translate(820.119 -77.3398) rotate(31)"/>
</clipPath>
</defs>
</svg>

<svg xmlns="http://www.w3.org/2000/svg" width="1068" height="214" fill="none"><g clip-path="url(#clip0_1556_50846)"><rect width="1068" height="214" fill="#EFEAFF" rx="8"/><g clip-path="url(#clip1_1556_50846)"><path fill="#C1A3FF" fill-opacity=".4" fill-rule="evenodd" d="M841.066-25.831a11.1 11.1 0 0 1 15.26-3.805L989.78 50.55a11.1 11.1 0 0 1 3.805 15.26l-66.126 110.052a5.56 5.56 0 1 0 9.532 5.727l66.129-110.051c6.33-10.545 2.93-24.185-7.613-30.52L862.054-39.17c-10.545-6.335-24.185-2.934-30.521 7.61L728.436 140.024c-6.336 10.544-2.935 24.185 7.609 30.52l133.454 80.188c10.544 6.335 24.185 2.934 30.52-7.61l11.57-19.255a5.561 5.561 0 0 0-9.532-5.728l-11.57 19.255a11.1 11.1 0 0 1-15.26 3.805l-133.454-80.187a11.1 11.1 0 0 1-3.805-15.26zm14.278 41.013a5.56 5.56 0 0 0-5.728 9.533L944.94 81.99a5.562 5.562 0 0 0 5.728-9.532zm-30.541 40.033a5.56 5.56 0 0 1 7.63-1.903l95.325 57.277a5.56 5.56 0 1 1-5.728 9.532l-95.324-57.276a5.56 5.56 0 0 1-1.903-7.63m-15.28 36.227a5.56 5.56 0 1 0-5.728 9.532l66.727 40.094a5.56 5.56 0 0 0 5.728-9.533z" clip-rule="evenodd"/></g></g><defs><clipPath id="clip0_1556_50846"><rect width="1068" height="214" fill="#fff" rx="8"/></clipPath><clipPath id="clip1_1556_50846"><path fill="#fff" d="m820.119-77.34 228.778 137.464-137.464 228.778-228.778-137.464z"/></clipPath></defs></svg>
